X: 419
T:Nora Criona
M:6/8
L:1/8
R:Jig
Z:Andrew Pickering
K:G
G2A BAG|A2B cBA|dBd gdB|AdB cAF|
G2A B2c|dcB ABd|gaf gdB|A2B cBA:|
dB/c/d gdB|ded dBc|dB/c/d gdB|A2B cBA|
1dB/c/d gdB|ded def|gfa gdB|A2B cBA:|
2 dB/c/d ec/d/e|fd/e/f gab|agf gdB|A2B cBA||

